FlatUX/src/svg/Microsoft - MSX2-content.svg

<svg enable-background="new 0 0 256 256" viewBox="0 0 256 256" xmlns="http://www.w3.org/2000/svg"><path d="m237.244 56h-214.488c-3.731 0-6.756 3.034-6.756 6.776v137.224h228v-137.224c0-3.742-3.024-6.776-6.756-6.776zm-201.244 11.649c2.209 0 4 1.791 4 4s-1.791 4-4 4-4-1.791-4-4 1.791-4 4-4zm0 104c-4.418 0-8-3.582-8-8s3.582-8 8-8 8 3.582 8 8-3.582 8-8 8z" fill="#223140"/><path d="m231 188h-182c-.552 0-1-.448-1-1v-131h184v131c0 .552-.448 1-1 1z" fill="#1b80bb"/><g fill="#2b3e51"><path d="m12 68h20v8h-20z"/><path d="m12 80h28v8h-28z"/><path d="m12 92h28v8h-28z"/></g></svg>

<svg xmlns="http://www.w3.org/2000/svg" viewBox="0 0 256 256"><path fill="#223140" d="M237.244 56H22.756C19.025 56 16 59.034 16 62.776V200h228V62.776c0-3.742-3.024-6.776-6.756-6.776M36 67.649a4 4 0 1 1 0 8 4 4 0 0 1 0-8m0 104a8 8 0 1 1 0-16 8 8 0 0 1 0 16"/><path fill="#1b80bb" d="M231 188H49a1 1 0 0 1-1-1V56h184v131a1 1 0 0 1-1 1"/><path fill="#2b3e51" d="M12 68h20v8H12zm0 12h28v8H12zm0 12h28v8H12z"/></svg>
